X:1
T:Title
%%score { 1 | 2 }
L:1/8
Q:1/4=100
M:4/4
K:F
V:1 treble nm="Grand Piano"
V:2 bass 
V:1
 c2 c2 c2 d2 | c4 A2 z2 | [EA]2 [EG]2 E2 C2 | F6 z2 | [EG]2 [EG]2 [FA]2 [F=B]2 | [Ec]4 [EG]2 z2 | %6
w: George~Stebbins * * *||||||
 e2 d2 A2 =B2 | [Ec]6 z2 | c2 c2 c2 d2 | c4 A2 z2 | [CEA]2 [B,EG]2 [G,CE]2 [B,C]2 | [A,CF]6 z2 | %12
w: ||||||
 [CEG]2 [CEG]2 [CFA]2 [B,FB]2 | [CFc]4 [Fd]2 z2 | [A,CF]2 [A,CF]2 [B,DG]2 [B,EG]2 | [A,F]6 z2 |] %16
w: ||||
V:2
 [F,A,F]2 [F,A,F]2 [F,A,F]2 [F,B,F]2 | [F,A,F]4 [F,CF]2 z2 | [C,C]2 [C,B,]2 [C,G,C]2 [E,B,]2 | %3
 [F,A,C]6 z2 | [C,C]2 [C,C]2 [G,=B,]2 [G,D]2 | [C,C]4 [C,C]2 z2 | %6
 [G,CG]2 [G,=B,G]2 [G,DF]2 [G,DF]2 | [C,C]6 z2 | [F,A,F]2 [F,A,F]2 [F,A,F]2 [F,B,F]2 | %9
 [F,A,F]4 [F,CF]2 z2 | C,2 C,2 C,2 E,2 | F,6 z2 | C,2 C,2 F,2 D,2 | A,,4 [B,,B,]2 z2 | %14
 C,2 C,2 C,2 C,2 | F,6 z2 |] %16

